X: 3
T: The Scartaglen
R: reel
M: 4/4
L: 1/8
K: Dmaj
|:DFEF D2 Ad | cAAG EFGE | DFEF D2 Ad | cAGE FD D2
DFEF D2 Ad | cAAG EFGE | Addc dfed | cAGE FD D2||
|:f3e fdge | fdge afde | f3e fage |f2 ec Add2 |
f3e fdge | fdge afde |fage dfed |cAGE FD D2 :||


Tune 900	Setting 900

